static/cards/FrenchDeck/default/card_clubs_02.svg

<svg width="219" height="304" viewBox="0 0 219 304" fill="none" xmlns="http://www.w3.org/2000/svg">
<g filter="url(#filter0_d_18_665)">
<g clip-path="url(#clip0_18_665)">
<rect x="8" y="4" width="203" height="288" rx="10" fill="white"/>
<path d="M17.2319 42.1382C17.2319 41.4175 17.5723 40.8569 18.7534 39.5156L27.0815 29.9863C29.3438 27.4038 30.2046 25.7222 30.2046 23.8403C30.2046 21.0176 28.1826 19.1357 25.1396 19.1357C22.5571 19.1357 20.6553 20.6772 20.0547 23.2798C19.7744 24.3408 19.2139 24.8813 18.3931 24.8813C17.4121 24.8813 16.7715 24.1406 16.7715 23.0596C16.7715 19.6562 20.0747 16.0928 25.3599 16.0928C30.2847 16.0928 33.748 19.2158 33.748 23.6201C33.748 26.2227 32.7271 28.1245 29.1235 32.2285L21.7163 40.6968V40.937H32.8271C33.8882 40.937 34.5688 41.5176 34.5688 42.4785C34.5688 43.4194 33.9282 44 32.8271 44H19.6143C18.1528 44 17.2319 43.2993 17.2319 42.1382Z" fill="#211C1D"/>
<path d="M24.0324 72C23.815 72 23.6387 71.826 23.6387 71.6115C23.6387 70.8912 24.9316 68.2013 25.1901 66.0959C25.2179 65.8695 24.886 65.7854 24.7639 65.9791C24.0982 67.0359 23.1904 68.515 20.9784 68.4633L20.9355 68.4647C20.9068 68.4656 20.8781 68.4666 20.8492 68.4666C18.4471 68.4666 16.5 66.3541 16.5 63.7483C16.5 61.1425 18.4471 59.03 20.8492 59.03C21.3182 59.03 21.7697 59.1108 22.1928 59.26C22.2915 59.2948 22.3921 59.1811 22.3431 59.0897C21.9682 58.3927 21.7531 57.5823 21.7531 56.717C21.7531 54.1483 23.625 52 26 52C28.375 52 30.2469 54.1483 30.2469 56.717C30.2469 57.5823 30.0318 58.3927 29.6569 59.0897C29.6079 59.1811 29.7085 59.2948 29.8072 59.26C30.2303 59.1108 30.6818 59.03 31.1508 59.03C33.5529 59.03 35.5 61.1425 35.5 63.7483C35.5 66.3541 33.5529 68.4666 31.1508 68.4666C31.1219 68.4666 31.0932 68.4656 31.0645 68.4647L31.0216 68.4633C28.8096 68.515 27.9018 67.0359 27.2361 65.9791C27.114 65.7854 26.7821 65.8695 26.8099 66.0959C27.0684 68.2013 28.3613 70.8913 28.3613 71.6114C28.3613 71.826 28.185 72 27.9676 72H24.0324Z" fill="#211C1D"/>
<path d="M201.768 253.862C201.768 254.583 201.428 255.143 200.247 256.484L191.918 266.014C189.656 268.596 188.795 270.278 188.795 272.16C188.795 274.982 190.817 276.864 193.86 276.864C196.443 276.864 198.345 275.323 198.945 272.72C199.226 271.659 199.786 271.119 200.607 271.119C201.588 271.119 202.229 271.859 202.229 272.94C202.229 276.344 198.925 279.907 193.64 279.907C188.715 279.907 185.252 276.784 185.252 272.38C185.252 269.777 186.273 267.875 189.876 263.771L197.284 255.303L197.284 255.063L186.173 255.063C185.112 255.063 184.431 254.482 184.431 253.521C184.431 252.581 185.072 252 186.173 252L199.386 252C200.847 252 201.768 252.701 201.768 253.862Z" fill="#211C1D"/>
<path d="M194.968 224C195.185 224 195.361 224.174 195.361 224.389C195.361 225.109 194.068 227.799 193.81 229.904C193.782 230.131 194.114 230.215 194.236 230.021C194.902 228.964 195.81 227.485 198.022 227.537L198.065 227.535C198.093 227.534 198.122 227.533 198.151 227.533C200.553 227.533 202.5 229.646 202.5 232.252C202.5 234.858 200.553 236.97 198.151 236.97C197.682 236.97 197.23 236.889 196.807 236.74C196.708 236.705 196.608 236.819 196.657 236.91C197.032 237.607 197.247 238.418 197.247 239.283C197.247 241.852 195.375 244 193 244C190.625 244 188.753 241.852 188.753 239.283C188.753 238.418 188.968 237.607 189.343 236.91C189.392 236.819 189.292 236.705 189.193 236.74C188.77 236.889 188.318 236.97 187.849 236.97C185.447 236.97 183.5 234.858 183.5 232.252C183.5 229.646 185.447 227.533 187.849 227.533C187.878 227.533 187.907 227.534 187.935 227.535L187.978 227.537C190.19 227.485 191.098 228.964 191.764 230.021C191.886 230.215 192.218 230.131 192.19 229.904C191.932 227.799 190.639 225.109 190.639 224.389C190.639 224.174 190.815 224 191.032 224L194.968 224Z" fill="#211C1D"/>
<path d="M104.84 76C104.325 76 103.908 75.5825 103.908 75.0675C103.908 73.339 106.97 66.8831 107.582 61.8301C107.648 61.2867 106.862 61.0849 106.573 61.5498C104.996 64.0863 102.846 67.6359 97.6068 67.512L97.5051 67.5152C97.4372 67.5176 97.3693 67.5199 97.3008 67.5199C91.6117 67.5199 87 62.4499 87 56.1959C87 49.9419 91.6117 44.8719 97.3008 44.8719C98.4114 44.8719 99.4808 45.066 100.483 45.4239C100.717 45.5074 100.955 45.2346 100.839 45.0153C99.951 43.3424 99.4416 41.3975 99.4416 39.3209C99.4416 33.156 103.875 28 109.5 28C115.125 28 119.558 33.156 119.558 39.3209C119.558 41.3975 119.049 43.3424 118.161 45.0153C118.045 45.2346 118.283 45.5074 118.517 45.4239C119.519 45.066 120.589 44.8719 121.699 44.8719C127.388 44.8719 132 49.9419 132 56.1959C132 62.4499 127.388 67.5199 121.699 67.5199C121.631 67.5199 121.563 67.5176 121.495 67.5152L121.393 67.512C116.154 67.6359 114.004 64.0863 112.427 61.5498C112.138 61.0849 111.352 61.2867 111.418 61.8301C112.03 66.883 115.092 73.339 115.092 75.0675C115.092 75.5825 114.675 76 114.16 76H104.84Z" fill="#211C1D"/>
<path d="M104.84 220C104.325 220 103.908 220.418 103.908 220.933C103.908 222.661 106.97 229.117 107.582 234.17C107.648 234.713 106.862 234.915 106.573 234.45C104.996 231.914 102.846 228.364 97.6068 228.488L97.5051 228.485C97.4372 228.482 97.3693 228.48 97.3008 228.48C91.6117 228.48 87 233.55 87 239.804C87 246.058 91.6117 251.128 97.3008 251.128C98.4114 251.128 99.4808 250.934 100.483 250.576C100.717 250.493 100.955 250.765 100.839 250.985C99.951 252.658 99.4416 254.603 99.4416 256.679C99.4416 262.844 103.875 268 109.5 268C115.125 268 119.558 262.844 119.558 256.679C119.558 254.603 119.049 252.658 118.161 250.985C118.045 250.765 118.283 250.493 118.517 250.576C119.519 250.934 120.589 251.128 121.699 251.128C127.388 251.128 132 246.058 132 239.804C132 233.55 127.388 228.48 121.699 228.48C121.631 228.48 121.563 228.482 121.495 228.485L121.393 228.488C116.154 228.364 114.004 231.914 112.427 234.45C112.138 234.915 111.352 234.713 111.418 234.17C112.03 229.117 115.092 222.661 115.092 220.933C115.092 220.418 114.675 220 114.16 220H104.84Z" fill="#211C1D"/>
</g>
</g>
<defs>
<filter id="filter0_d_18_665" x="0" y="0" width="219" height="304" filterUnits="userSpaceOnUse" color-interpolation-filters="sRGB">
<feFlood flood-opacity="0" result="BackgroundImageFix"/>
<feColorMatrix in="SourceAlpha" type="matrix" values="0 0 0 0 0 0 0 0 0 0 0 0 0 0 0 0 0 0 127 0" result="hardAlpha"/>
<feOffset dy="4"/>
<feGaussianBlur stdDeviation="4"/>
<feComposite in2="hardAlpha" operator="out"/>
<feColorMatrix type="matrix" values="0 0 0 0 0.614771 0 0 0 0 0.70094 0 0 0 0 0.806257 0 0 0 1 0"/>
<feBlend mode="normal" in2="BackgroundImageFix" result="effect1_dropShadow_18_665"/>
<feBlend mode="normal" in="SourceGraphic" in2="effect1_dropShadow_18_665" result="shape"/>
</filter>
<clipPath id="clip0_18_665">
<rect x="8" y="4" width="203" height="288" rx="10" fill="white"/>
</clipPath>
</defs>
</svg>

<svg xmlns="http://www.w3.org/2000/svg" width="219" height="304" fill="none" viewBox="0 0 219 304"><g filter="url(#a)"><g clip-path="url(#b)"><rect width="203" height="288" x="8" y="4" fill="#fff" rx="10"/><path fill="#211c1d" d="M17.232 42.138c0-.72.34-1.281 1.521-2.622l8.328-9.53c2.263-2.582 3.124-4.264 3.124-6.146 0-2.822-2.022-4.704-5.065-4.704-2.583 0-4.485 1.541-5.085 4.144-.28 1.06-.841 1.601-1.662 1.601-.98 0-1.622-.74-1.622-1.821 0-3.404 3.304-6.967 8.589-6.967 4.925 0 8.388 3.123 8.388 7.527 0 2.603-1.02 4.505-4.624 8.608l-7.408 8.469v.24h11.111c1.061 0 1.742.58 1.742 1.541 0 .941-.64 1.522-1.742 1.522H19.614c-1.461 0-2.382-.7-2.382-1.862M24.032 72a.39.39 0 0 1-.393-.388c0-.72 1.293-3.41 1.551-5.516.028-.227-.304-.31-.426-.117-.666 1.057-1.574 2.536-3.786 2.484l-.043.002-.086.002c-2.402 0-4.349-2.113-4.349-4.719 0-2.605 1.947-4.718 4.35-4.718.468 0 .92.08 1.343.23.098.035.2-.079.15-.17a5 5 0 0 1-.59-2.373C21.753 54.148 23.625 52 26 52s4.247 2.148 4.247 4.717a5 5 0 0 1-.59 2.373c-.05.091.052.205.15.17a4 4 0 0 1 1.344-.23c2.402 0 4.349 2.112 4.349 4.718s-1.947 4.719-4.35 4.719l-.085-.002-.043-.002c-2.212.052-3.12-1.427-3.786-2.484-.122-.194-.454-.11-.426.117.258 2.105 1.551 4.795 1.551 5.515a.39.39 0 0 1-.393.389zM201.768 253.862c0 .721-.34 1.281-1.521 2.622l-8.329 9.53c-2.262 2.582-3.123 4.264-3.123 6.146 0 2.822 2.022 4.704 5.065 4.704 2.583 0 4.485-1.541 5.085-4.144.281-1.061.841-1.601 1.662-1.601.981 0 1.622.74 1.622 1.821 0 3.404-3.304 6.967-8.589 6.967-4.925 0-8.388-3.123-8.388-7.527 0-2.603 1.021-4.505 4.624-8.609l7.408-8.468v-.24h-11.111c-1.061 0-1.742-.581-1.742-1.542 0-.94.641-1.521 1.742-1.521h13.213c1.461 0 2.382.701 2.382 1.862M194.968 224a.39.39 0 0 1 .393.389c0 .72-1.293 3.41-1.551 5.515-.028.227.304.311.426.117.666-1.057 1.574-2.536 3.786-2.484l.043-.002.086-.002c2.402 0 4.349 2.113 4.349 4.719s-1.947 4.718-4.349 4.718c-.469 0-.921-.081-1.344-.23-.099-.035-.199.079-.15.17.375.697.59 1.508.59 2.373 0 2.569-1.872 4.717-4.247 4.717s-4.247-2.148-4.247-4.717c0-.865.215-1.676.59-2.373.049-.091-.051-.205-.15-.17-.423.149-.875.23-1.344.23-2.402 0-4.349-2.112-4.349-4.718s1.947-4.719 4.349-4.719l.086.002.043.002c2.212-.052 3.12 1.427 3.786 2.484.122.194.454.11.426-.117-.258-2.105-1.551-4.795-1.551-5.515a.39.39 0 0 1 .393-.389zM104.84 76a.93.93 0 0 1-.932-.933c0-1.728 3.062-8.184 3.674-13.237.066-.543-.72-.745-1.009-.28-1.577 2.536-3.727 6.086-8.966 5.962l-.102.003-.204.005C91.61 67.52 87 62.45 87 56.196s4.612-11.324 10.3-11.324c1.111 0 2.18.194 3.183.552.234.083.472-.19.356-.409a12.1 12.1 0 0 1-1.397-5.694C99.442 33.156 103.875 28 109.5 28s10.058 5.156 10.058 11.32c0 2.078-.509 4.022-1.397 5.695-.116.22.122.492.356.409a9.4 9.4 0 0 1 3.182-.552c5.689 0 10.301 5.07 10.301 11.324s-4.612 11.324-10.301 11.324q-.102 0-.204-.005l-.102-.003c-5.239.124-7.389-3.426-8.966-5.962-.289-.465-1.075-.263-1.009.28.612 5.053 3.674 11.509 3.674 13.237a.93.93 0 0 1-.932.933zM104.84 220a.933.933 0 0 0-.932.933c0 1.728 3.062 8.184 3.674 13.237.066.543-.72.745-1.009.28-1.577-2.536-3.727-6.086-8.966-5.962l-.102-.003a5 5 0 0 0-.204-.005c-5.69 0-10.301 5.07-10.301 11.324s4.612 11.324 10.3 11.324c1.111 0 2.18-.194 3.183-.552.234-.083.472.189.356.409a12.1 12.1 0 0 0-1.397 5.694c0 6.165 4.433 11.321 10.058 11.321s10.058-5.156 10.058-11.321c0-2.076-.509-4.021-1.397-5.694-.116-.22.122-.492.356-.409a9.4 9.4 0 0 0 3.182.552c5.689 0 10.301-5.07 10.301-11.324s-4.612-11.324-10.301-11.324q-.102 0-.204.005l-.102.003c-5.239-.124-7.389 3.426-8.966 5.962-.289.465-1.075.263-1.009-.28.612-5.053 3.674-11.509 3.674-13.237a.933.933 0 0 0-.932-.933z"/></g></g><defs><clipPath id="b"><rect width="203" height="288" x="8" y="4" fill="#fff" rx="10"/></clipPath><filter id="a" width="219" height="304" x="0" y="0" color-interpolation-filters="sRGB" filterUnits="userSpaceOnUse"><feFlood flood-opacity="0" result="BackgroundImageFix"/><feColorMatrix in="SourceAlpha" result="hardAlpha" values="0 0 0 0 0 0 0 0 0 0 0 0 0 0 0 0 0 0 127 0"/><feOffset dy="4"/><feGaussianBlur stdDeviation="4"/><feComposite in2="hardAlpha" operator="out"/><feColorMatrix values="0 0 0 0 0.614771 0 0 0 0 0.70094 0 0 0 0 0.806257 0 0 0 1 0"/><feBlend in2="BackgroundImageFix" result="effect1_dropShadow_18_665"/><feBlend in="SourceGraphic" in2="effect1_dropShadow_18_665" result="shape"/></filter></defs></svg>
